flaticon/interaction/list-19.svg

<svg xmlns="http://www.w3.org/2000/svg" width="32" height="32" viewBox="0 0 24 24">
    <path d="M 18.546875 13.527344 C 15.65625 13.527344 13.308594 15.875 13.308594 18.761719 C 13.308594 21.652344 15.65625 24 18.546875 24 C 21.433594 24 23.78125 21.652344 23.78125 18.761719 C 23.78125 15.875 21.433594 13.527344 18.546875 13.527344 Z M 18.546875 23.128906 C 16.140625 23.128906 14.183594 21.167969 14.183594 18.761719 C 14.183594 16.359375 16.140625 14.398438 18.546875 14.398438 C 20.953125 14.398438 22.910156 16.359375 22.910156 18.761719 C 22.910156 21.167969 20.953125 23.128906 18.546875 23.128906 Z M 18.546875 23.128906"/>
    <path d="M21.164062 18.328125L18.980469 18.328125 18.980469 16.144531C18.980469 15.902344 18.785156 15.710938 18.546875 15.710938 18.304688 15.710938 18.109375 15.902344 18.109375 16.144531L18.109375 18.761719C18.109375 19.003906 18.304688 19.199219 18.546875 19.199219L21.164062 19.199219C21.40625 19.199219 21.601562 19.003906 21.601562 18.761719 21.601562 18.523438 21.40625 18.328125 21.164062 18.328125zM12 6.109375L19.855469 6.109375C20.097656 6.109375 20.289062 5.914062 20.289062 5.671875 20.289062 5.429688 20.097656 5.238281 19.855469 5.238281L12 5.238281C11.757812 5.238281 11.5625 5.429688 11.5625 5.671875 11.5625 5.914062 11.757812 6.109375 12 6.109375zM12 12.21875L19.855469 12.21875C20.097656 12.21875 20.289062 12.023438 20.289062 11.78125 20.289062 11.539062 20.097656 11.34375 19.855469 11.34375L12 11.34375C11.757812 11.34375 11.5625 11.539062 11.5625 11.78125 11.5625 12.023438 11.757812 12.21875 12 12.21875zM9.199219 3.160156C9.015625 3.003906 8.738281 3.023438 8.582031 3.207031L5.855469 6.386719 4.1875 5.136719C3.996094 4.992188 3.722656 5.03125 3.578125 5.222656 3.433594 5.417969 3.472656 5.691406 3.664062 5.835938L5.660156 7.332031C5.738281 7.390625 5.832031 7.417969 5.921875 7.417969 6.046875 7.417969 6.167969 7.367188 6.253906 7.265625L9.246094 3.773438C9.402344 3.589844 9.382812 3.316406 9.199219 3.160156zM9.199219 9.269531C9.015625 9.113281 8.738281 9.132812 8.582031 9.316406L5.855469 12.496094 4.1875 11.246094C3.996094 11.101562 3.722656 11.140625 3.578125 11.332031 3.433594 11.523438 3.472656 11.800781 3.664062 11.941406L5.660156 13.441406C5.738281 13.5 5.832031 13.527344 5.921875 13.527344 6.046875 13.527344 6.167969 13.476562 6.253906 13.375L9.246094 9.882812C9.402344 9.699219 9.382812 9.425781 9.199219 9.269531zM8.582031 15.863281L5.855469 19.042969 4.1875 17.789062C3.996094 17.648438 3.722656 17.683594 3.578125 17.878906 3.433594 18.070312 3.472656 18.34375 3.664062 18.488281L5.660156 19.984375C5.738281 20.042969 5.832031 20.074219 5.921875 20.074219 6.046875 20.074219 6.167969 20.019531 6.253906 19.917969L9.246094 16.429688C9.402344 16.246094 9.382812 15.972656 9.199219 15.8125 9.015625 15.65625 8.738281 15.679688 8.582031 15.863281zM8.582031 15.863281"/>
    <path d="M 18.46875 0 L 5.53125 0 C 2.601562 0 0.21875 2.382812 0.21875 5.3125 L 0.21875 18.25 C 0.21875 21.179688 2.601562 23.5625 5.53125 23.5625 L 12 23.5625 C 12.242188 23.5625 12.4375 23.367188 12.4375 23.128906 C 12.4375 22.886719 12.242188 22.691406 12 22.691406 L 5.53125 22.691406 C 3.082031 22.691406 1.089844 20.699219 1.089844 18.25 L 1.089844 5.3125 C 1.089844 2.863281 3.082031 0.871094 5.53125 0.871094 L 18.46875 0.871094 C 20.917969 0.871094 22.910156 2.863281 22.910156 5.3125 L 22.910156 11.78125 C 22.910156 12.023438 23.105469 12.21875 23.34375 12.21875 C 23.585938 12.21875 23.78125 12.023438 23.78125 11.78125 L 23.78125 5.3125 C 23.78125 2.382812 21.398438 0 18.46875 0 Z M 18.46875 0"/>
</svg>

<svg xmlns="http://www.w3.org/2000/svg" width="32" height="32" viewBox="0 0 24 24">
    <path d="M18.547 13.527a5.24 5.24 0 0 0-5.238 5.235A5.241 5.241 0 0 0 18.547 24a5.24 5.24 0 0 0 5.234-5.238 5.24 5.24 0 0 0-5.234-5.235zm0 9.602a4.371 4.371 0 0 1-4.363-4.367 4.37 4.37 0 0 1 4.363-4.364 4.37 4.37 0 0 1 4.363 4.364 4.371 4.371 0 0 1-4.363 4.367zm0 0"/>
    <path d="M21.164 18.328H18.98v-2.183a.433.433 0 0 0-.433-.434.433.433 0 0 0-.438.434v2.617c0 .242.196.437.438.437h2.617a.436.436 0 0 0 0-.871zm0 0M12 6.11h7.855a.433.433 0 0 0 .434-.438.43.43 0 0 0-.434-.434H12a.433.433 0 0 0-.438.434c0 .242.196.437.438.437zm0 0M12 12.219h7.855a.433.433 0 0 0 .434-.438.433.433 0 0 0-.434-.437H12a.437.437 0 1 0 0 .875zm0 0M9.2 3.16a.438.438 0 0 0-.618.047l-2.727 3.18-1.668-1.25a.436.436 0 1 0-.523.699L5.66 7.332a.437.437 0 0 0 .594-.066l2.992-3.493A.434.434 0 0 0 9.2 3.16zm0 0M9.2 9.27a.438.438 0 0 0-.618.046l-2.727 3.18-1.668-1.25a.436.436 0 0 0-.523.695l1.996 1.5a.437.437 0 0 0 .594-.066l2.992-3.492A.434.434 0 0 0 9.2 9.27zm0 0M8.582 15.863l-2.727 3.18-1.668-1.254a.436.436 0 0 0-.523.7l1.996 1.495c.078.059.172.09.262.09a.434.434 0 0 0 .332-.156l2.992-3.488a.439.439 0 0 0-.047-.617.439.439 0 0 0-.617.05zm0 0"/>
    <path d="M18.469 0H5.53A5.318 5.318 0 0 0 .22 5.313V18.25a5.318 5.318 0 0 0 5.312 5.313H12a.436.436 0 1 0 0-.872H5.531A4.446 4.446 0 0 1 1.09 18.25V5.312A4.446 4.446 0 0 1 5.53.872H18.47a4.446 4.446 0 0 1 4.441 4.44v6.47a.436.436 0 1 0 .871 0v-6.47A5.318 5.318 0 0 0 18.47 0zm0 0"/>
</svg>
